X: 3079
T: The CORDUROY
C: Hugh Dunlop
Q:"Strathspey."
R: Strathspey.
%R:strathspey
B: James Kerr "Merry Melodies" v.3 p.10 #79
Z: 2016 John Chambers <jc:trillian.mit.edu>
M: C
L: 1/8
K: A
|:\
vc<uc vc>uB vA>vBuc>ud | e<e e>c e2 a2 |\
c<c c>B A>BA>G | F<f f>^e f3 a ::\
e>fa>b a<a a>e | c<e e>c e2 a2 |\
(3fed (3cdB A>BA>G | F<f f>^e f3 e :|

%%sep 1 1 500
%%sep 1 1 500

